X: 11181
T: Dunford's Fancy
R: jig
M: 6/8
K: Dmajor
F2F FED|FAA AFA|B2B BAF|AFE EDE|
F2F FED|FAA AFA|BAB dBd|1 fec d2A:|2 fec d2e||
f2f fed|faf fed|a3 fed|eee ede|
[1 faf fbf|ede fed|gfe dag|fec d2e:|
[2 g3 f3|ede fed|gfe dcB|Adc d3||

